X:337
T:Bill Hart's Jig
R:jig
H:Also played in Ador, #7
Z:id:hn-jig-337
M:6/8
K:Ddor
~D3 ~A3|BAG ABA|~D3 ~A3|BAG EGE|~D3 ~A3|BAG ABc|d2B cBA|1 BAG EGE:|2 BAG E2D||
|:d2B c2A|BAG ABc|d2B c2A|BAG E2D|d2B c2A|BAG ABc|ded c2A|1 BAG E2D:|2 BAG EGE||

